icons/mobile/20/svg/sync-tabs-20.svg

<svg width="20" height="20" viewBox="0 0 20 20" fill="none" xmlns="http://www.w3.org/2000/svg">
<path fill-rule="evenodd" clip-rule="evenodd" d="M14.5 7.99852C15.2166 7.99852 15.877 8.04715 16.4688 8.12059L16.6318 8.14892C17.4312 8.32579 17.9998 9.03747 18 9.86083V16.1382C18 17.0432 17.3122 17.7741 16.4443 17.8804C15.7254 17.9685 15.0706 17.9985 14.5 17.9985C13.9626 17.9985 13.4571 17.9718 12.9883 17.9272L12.5312 17.8765C11.6473 17.7657 11 17.0146 11 16.1362V9.85888C11.0002 8.95403 11.6879 8.22293 12.5557 8.11669C13.2745 8.02854 13.9294 7.99852 14.5 7.99852ZM14.5 9.49852C14.1121 9.49852 13.6815 9.51375 13.2158 9.55517L12.7383 9.60595C12.5925 9.62378 12.5002 9.74215 12.5 9.85888V15.4995H16.5V9.86083C16.4998 9.74414 16.427 9.65038 16.3271 9.61864L16.2832 9.60888C15.7471 9.54235 15.1492 9.49852 14.5 9.49852Z" fill="black"/>
<path d="M5.41504 2.26415C8.42589 1.91517 11.5347 1.91427 14.5615 2.26122C15.9514 2.42021 16.9998 3.59574 17 4.99657V6.4995H15.5V4.99657C15.4998 4.35874 15.0225 3.82246 14.3906 3.75048C11.4768 3.41553 8.4868 3.4184 5.58594 3.75438C4.96709 3.82542 4.50015 4.35782 4.5 4.99364V10.0054C4.5002 10.6421 4.96907 11.1765 5.58984 11.2475C6.87684 11.3975 8.192 11.4825 9.5 11.4995V14.4995H2.75C2.336 14.4995 2 14.1635 2 13.7495C2.00025 13.3357 2.33615 12.9995 2.75 12.9995H9.49023C8.12823 12.9815 6.75699 12.8938 5.41699 12.7378C4.04014 12.5788 3.0002 11.4032 3 10.0054V4.99364C3.00016 3.59578 4.03914 2.42214 5.41504 2.26415Z" fill="black"/>
</svg>

<!-- This Source Code Form is subject to the terms of the Mozilla Public
   - License, v. 2.0. If a copy of the MPL was not distributed with this
   - file, You can obtain one at http://mozilla.org/MPL/2.0/. -->
<svg xmlns="http://www.w3.org/2000/svg" width="20" height="20" fill="none" viewBox="0 0 20 20">
    <path fill="#000" fill-rule="evenodd" d="M14.5 7.999c.717 0 1.377.048 1.969.122l.163.028A1.75 1.75 0 0 1 18 9.86v6.277c0 .905-.688 1.636-1.556 1.742a16 16 0 0 1-3.456.047l-.457-.05A1.75 1.75 0 0 1 11 16.137V9.858c0-.905.688-1.636 1.556-1.742a16 16 0 0 1 1.944-.118m0 1.5c-.388 0-.819.015-1.284.056l-.478.051a.264.264 0 0 0-.238.253v5.64h4V9.862a.25.25 0 0 0-.173-.242l-.044-.01A15 15 0 0 0 14.5 9.5" clip-rule="evenodd" />
    <path fill="#000" d="M5.415 2.264a40.2 40.2 0 0 1 9.147-.003A2.75 2.75 0 0 1 17 4.997V6.5h-1.5V4.997c0-.638-.477-1.175-1.11-1.247a38.6 38.6 0 0 0-8.804.004A1.24 1.24 0 0 0 4.5 4.994v5.011c0 .637.47 1.172 1.09 1.242a38 38 0 0 0 3.91.252v3H2.75a.75.75 0 0 1 0-1.5h6.74a40 40 0 0 1-4.073-.261A2.743 2.743 0 0 1 3 10.005V4.994a2.74 2.74 0 0 1 2.415-2.73" />
</svg>
